!!!COM: Copland, Aaron
!!!OTL: Clarinet Concerto
!!!OMV: II: Rather Fast
!!!example: 719
!!!work: Cop-31
**kern	**dynam	**kern	**dynam	**kern	**dynam	**kern	**dynam	**kern	**dynam	**kern	**dynam
*part6	*part6	*part5	*part5	*part4	*part4	*part3	*part3	*part2	*part2	*part1	*part1
*staff6	*	*staff5	*	*staff4	*	*staff3	*	*staff2	*	*staff1	*
*I"Contrabass	*	*I"Violoncello	*	*I"Viola	*	*I"Violin II	*	*I"Violin I	*	*I"Clarinet in Bb	*
*I'Cb.	*	*I'Vc.	*	*I'Vla.	*	*I'Vln. II	*	*I'Vln. I	*	*I'Cl.	*
*clefF4	*	*clefF4	*	*clefC3	*	*clefG2	*	*clefG2	*	*clefG2	*
*k[b-e-a-d-g-]	*	*k[b-e-a-d-g-]	*	*k[b-e-a-d-g-]	*	*k[b-e-a-d-g-]	*	*k[b-e-a-d-g-]	*	*k[b-e-a-d-g-]	*
*D-:	*	*D-:	*	*D-:	*	*D-:	*	*D-:	*	*D-:	*
*M4/4	*	*M4/4	*	*M4/4	*	*M4/4	*	*M4/4	*	*M4/4	*
*MM121	*	*MM121	*	*MM121	*	*MM121	*	*MM121	*	*MM121	*
=45	=45	=45	=45	=45	=45	=45	=45	=45	=45	=45	=45
4FF	.	4FF'	.	4r	.	4r	.	8ff 8bb- 8ddd-	.	4r	.
.	.	.	.	.	.	.	.	8r	.	.	.
4r	.	4r	.	4A-' 4a-	.	8g-'L 8b-	.	4r	.	4ccc`	.
.	.	.	.	.	.	8d-'J	.	.	.	.	.
4EE-	.	4EE-'	.	4r	.	4r	.	8dd- 8gg- 8bb-	.	4r	.
.	.	.	.	.	.	.	.	8r	.	.	.
4r	.	4r	.	4G-' 4g-	.	8a-'L 8cc	.	4r	.	4fff`	.
.	.	.	.	.	.	8e-'J	.	.	.	.	.
=46	=46	=46	=46	=46	=46	=46	=46	=46	=46	=46	=46
4DD-	.	4DD-'	.	4r	.	4r	.	8ee- 8aa- 8ccc	.	4r	.
.	.	.	.	.	.	.	.	8r	.	.	.
4r	.	4r	.	4F' 4f	.	8dd-'L 8ff	.	4r	.	4ccc`	.
.	.	.	.	.	.	8a-'J	.	.	.	.	.
4EE-	.	4EE-'	.	4r	.	4r	.	8aa- 8ddd- 8fff	.	4r	.
.	.	.	.	.	.	.	.	8r	.	.	.
4r	.	4r	.	4G-' 4g-	.	8b-'L 8dd-	.	4r	.	4ddd-`	.
.	.	.	.	.	.	8f'J	.	.	.	.	.
=47	=47	=47	=47	=47	=47	=47	=47	=47	=47	=47	=47
4FF	.	4FF'	.	4r	.	4r	.	8ff 8bb- 8ddd-	.	4ccc`	.
.	.	.	.	.	.	.	.	8r	.	.	.
4r	.	4r	.	4A-' 4a-	.	8g-'L 8b-	.	4r	.	4fff`	.
.	.	.	.	.	.	8d-'J	.	.	.	.	.
4GG-	.	4GG-'	.	4r	.	4r	.	8dd- 8gg- 8bb-	.	4r	.
.	.	.	.	.	.	.	.	8r	.	.	.
4r	.	4r	.	4B-' 4b-	.	8a-'L 8cc	.	4r	.	4ccc`	.
.	.	.	.	.	.	8e-'J	.	.	.	.	.
=48	=48	=48	=48	=48	=48	=48	=48	=48	=48	=48	=48
*	*	*	*	*^	*	*	*	*	*	*	*
4FF	.	4FF'	.	4ryy	4r	.	2r	.	8ee- 8aa- 8ccc	.	4r	.
.	.	.	.	.	.	.	.	.	8r	.	.	.
!	!	!	!	!LO:TX:b:t=poco cresc.	!	!	!	!	!LO:TX:b:t=poco cresc.	!	!LO:TX:b:t=poco cresc.	!
4r	.	4r	.	4a-	(8A-L	.	.	.	8ddd-'L 8fff	.	4ddd-	.
.	.	.	.	.	8a-'J)	.	.	.	8aa-'J	.	.	.
!LO:TX:b:t=poco cresc.	!	!LO:TX:b:t=poco cresc.	!	!	!	!	!LO:TX:b:t=poco cresc.	!	!	!	!	!
4EE-	.	4EE-'	.	4ryy	4r	.	8dd-'L 8ff	.	4r	.	4ccc	.
.	.	.	.	.	.	.	8a-'J	.	.	.	.	.
4r	.	4r	.	4g-	(8G-L	.	4r	.	8bb-'L 8ddd-	.	4r	.
.	.	.	.	.	8g-'J)	.	.	.	8ff'J	.	.	.
=49	=49	=49	=49	=49	=49	=49	=49	=49	=49	=49	=49	=49
4FF	.	4FF'	.	4ryy	4r	.	8b-L 8dd-	.	4r	.	4fff	.
.	.	.	.	.	.	.	8fJ	.	.	.	.	.
4r	.	4r	.	4a-	(8A-L	.	4r	.	8gg-'L 8bb-	.	4ccc	.
.	.	.	.	.	8a-'J)	.	.	.	8dd-'J	.	.	.
4EE-	.	4EE-'	.	4ryy	4r	.	8g-L 8b-	.	4r	.	4r	.
.	.	.	.	.	.	.	8d-J	.	.	.	.	.
4r	.	4r	.	4g-	(8G-L	.	4r	.	8aa-'L 8ccc	.	4ddd-	.
.	.	.	.	.	8g-'J)	.	.	.	8ee-'J	.	.	.
*	*	*	*	*v	*v	*	*	*	*	*	*	*
=50	=50	=50	=50	=50	=50	=50	=50	=50	=50	=50	=50
4r	.	4r	.	4r	.	8a-L 8cc	.	4r	.	4ccc	.
.	.	.	.	.	.	8e-J	.	.	.	.	.
4FF	f	4F' 4f	f	(8FL	f	4r	.	8ddd-'L 8fff	f	4fff	.
.	.	.	.	8fJ)	.	.	.	8aa-'J	.	.	.
4r	.	4r	.	4r	.	8dd-L 8ff	f	4r	.	4ccc	f
.	.	.	.	.	.	8a-J	.	.	.	.	.
4GG-	.	4G-' 4g-	.	(8G-L	.	4r	.	8bb-'L 8ddd-	.	8ddd-L	.
.	.	.	.	8g-J)	.	.	.	8ff'J	.	8cccJ	.
=51	=51	=51	=51	=51	=51	=51	=51	=51	=51	=51	=51
4r	.	4r	.	4r	.	8b-'L 8dd-	.	4r	.	8ddd-L	.
.	.	.	.	.	.	8f'J	.	.	.	8ccc	.
*	*	*clefC4	*	*	*	*	*	*	*	*	*
4FF'	.	4A-' 4a-	.	(8A-L	.	4r	.	8bb-'L 8ddd-	.	8bb-	.
.	.	.	.	8a-'J)	.	.	.	8ff'J	.	8aa-J	.
4r	.	4r	.	4r	.	8ee-'L	.	8bb-'L	.	4r	.
.	.	.	.	.	.	8b-'	.	8ff'	.	.	.
4GGn'	.	4B-' 4b-	.	(8B-L	.	8b-'	.	8ff'	.	8ddd-L	.
.	.	.	.	8b-'J)	.	8f'J	.	8f'J	.	8cccJ	.
=52	=52	=52	=52	=52	=52	=52	=52	=52	=52	=52	=52
4r	.	4r	.	4r	.	4r	.	4r	.	8bb-L	.
.	.	.	.	.	.	.	.	.	.	8aa-J	.
4AAn'	.	4c' 4cc	.	(8cL	.	8ee-'L	.	8bb-'L	.	4r	.
.	.	.	.	8cc'J)	.	8b-'J	.	8ff'J	.	.	.
4r	.	4r	.	4r	.	8b-'L	.	8ff'L	.	8ffL	.
.	.	.	.	.	.	8f'J	.	8f'J	.	8gg-	.
4GGn'	.	4B-' 4b-	.	(8B-L	.	4r	.	4r	.	8aa-	.
.	.	.	.	8b-'J)	.	.	.	.	.	8bb-J	.
=53	=53	=53	=53	=53	=53	=53	=53	=53	=53	=53	=53
4r	.	4r	.	4r	.	8gg-'L	.	8ddd-'L	.	4r	.
.	.	.	.	.	.	8dd-'	.	8gg-'	.	.	.
4AAn	.	4c 4cc	.	(8cL	.	8ee-'	.	8bb-'	.	8ffL	.
.	.	.	.	8cc'J)	.	8b-'J	.	8ee-'J	.	8gg-J	.
4r	.	4r	.	4r	.	4r	.	4r	.	8aa-L	.
.	.	.	.	.	.	.	.	.	.	8bb-J	.
4BB-	.	4d- 4dd-	.	(8d-L	.	8gg-L	.	8ddd-L	.	4r	.
.	.	.	.	8dd-'J)	.	8dd-J	.	8gg-J	.	.	.
=54	=54	=54	=54	=54	=54	=54	=54	=54	=54	=54	=54
4r	.	4r	.	4r	.	8bb-L	.	8fffL	.	4r	.
.	.	.	.	.	.	8ffJ	.	8bb-J	.	.	.
!LO:TX:b:t=cresc.	!	!LO:TX:b:t=cresc.	!	!	!	!	!	!	!	!LO:TX:b:t=cresc.	!
4C	.	4e- 4ee-	.	(8e-L	.	4r	.	4r	.	8bb-L	.
!	!	!	!	!LO:TX:b:t=cresc.	!	!	!	!	!	!	!
.	.	.	.	8ee-'J)	.	.	.	.	.	8aa-J	.
!	!	!	!	!	!	!LO:TX:b:t=cresc.	!	!LO:TX:b:t=cresc.	!	!	!
4r	.	4r	.	4r	.	8gg-L	.	8ddd-L	.	8gg-L	.
.	.	.	.	.	.	8dd-	.	8gg-	.	8ff	.
4BB-	.	4d- 4dd-	.	(8d-L	.	8ee-	.	8bb-	.	8ee-	.
.	.	.	.	8dd-'J)	.	8b-J	.	8ee-J	.	8dd-J	.
*	*	*	*	*clefG2	*	*	*	*	*	*	*
=55	=55	=55	=55	=55	=55	=55	=55	=55	=55	=55	=55
4r	.	4r	.	4r	.	8ee-L	.	8bb-L	.	4r	.
.	.	.	.	.	.	8b-	.	8ee-	.	.	.
4C	.	4e-	.	(8e-L	.	8b-	.	8ff	.	8ffL	.
.	.	.	.	8ee-'J)	.	8fJ	.	8b-J	.	8gg-J	.
4r	.	4r	.	4r	.	4r	.	4r	.	8aa-L	.
.	.	.	.	.	.	.	.	.	.	8bb-J	.
4D-	.	4f	.	(8fL	.	8gg-L	.	8ddd-L	.	4r	.
.	.	.	.	8ff'J)	.	8dd-J	.	8gg-J	.	.	.
=56	=56	=56	=56	=56	=56	=56	=56	=56	=56	=56	=56
4r	.	4r	.	4r	.	8bb-L	.	8fffL	.	8r	.
.	.	.	.	.	.	8ff	.	8bb-	.	8eee-	.
4E-	.	4g-	.	(8g-L	.	8ddd-	.	8aaa-	.	8fffL	.
.	.	.	.	8gg-'J)	.	8aa-J	.	8ddd-J	.	8eee-J	.
4r	.	4r	.	4r	.	8bb-L	.	8fffL	.	8ddd-L	.
.	.	.	.	.	.	8ff	.	8bb-	.	8ccc-X	.
4F	.	4a-	.	(8a-L	.	8gg-	.	8ddd-	.	8bb-	.
.	.	.	.	8aa-'J)	.	8dd-J	.	8gg-J	.	8aa-J	.
=	=	=	=	=	=	=	=	=	=	=	=
*-	*-	*-	*-	*-	*-	*-	*-	*-	*-	*-	*-
!!!system-decoration: s1[(s2,s3,s4,s5,s6)]
!!!CDT: 1900/11/14-1990/12/02
!!!CBL: Brooklyn, United States
!!!CDL: North Tarrytown, United States
!!!CNT: American
!!!AGN: Orchestral; Concerto
!!!MCN:
!!!MDT: 1950/03/13
!!!MGN:
!!!MLC: New York, New York, United States of America
!!!MPD: 1950
!!!MPN: Smit, Leo
!!!ODT: 1926
!!!PDT: 1949
!!!excerpt-start-measure: 45
!!!excerpt-end-measure: 56
!!!excerpt-start-time: 0:46
!!!excerpt-end-time: 0:59
!!!EEV: 2020/01/27
!!!ONB: Converted from MusicXML on 2020/01/27
